packages/foundations/assets/icons/functional/images/notification/bell.svg

<svg xmlns="http://www.w3.org/2000/svg" width="32" height="32" fill="none"><path fill="#1A1C1F" fill-rule="evenodd" d="M15.493 2.126c-.475.293-.501.415-.504 2.331l-.002 1.604-.547.094c-3.191.547-5.485 2.968-6.194 6.538C8.035 13.754 8 14.369 8 17.009c0 1.367-.025 2.748-.055 3.071-.166 1.789-.806 2.898-2.278 3.945-.488.348-.654.594-.654.975 0 .292.078.483.282.695.316.327.37.332 3.694.332h2.997l.038.38c.049.497.201.985.473 1.513.267.519.949 1.229 1.476 1.535 1.21.702 2.844.702 4.054 0 .527-.306 1.209-1.016 1.476-1.535.272-.528.424-1.016.473-1.513l.038-.38h2.997c3.324 0 3.378-.005 3.694-.332a.9.9 0 0 0 .282-.695c0-.381-.166-.627-.654-.975-1.477-1.051-2.109-2.145-2.278-3.945-.03-.323-.055-1.704-.055-3.071 0-1.366-.026-2.746-.057-3.066a12.6 12.6 0 0 0-.527-2.529c-.939-2.857-3.083-4.784-5.854-5.259l-.544-.093-.016-1.658c-.018-1.902-.027-1.949-.462-2.225-.299-.189-.786-.214-1.047-.053m1.309 5.927c1.354.155 2.321.616 3.251 1.548.959.961 1.452 1.983 1.792 3.709.067.336.093 1.07.127 3.57.045 3.308.071 3.669.329 4.693.151.602.479 1.417.783 1.947l.26.453-3.672.014c-2.02.008-5.324.008-7.344 0l-3.672-.014.26-.453c.309-.54.631-1.349.785-1.973.262-1.062.282-1.356.326-4.667.043-3.26.054-3.422.297-4.363a7.2 7.2 0 0 1 1.036-2.269c1.164-1.649 3.166-2.456 5.442-2.195m1.171 18.158c0 .271-.192.739-.424 1.033-.355.449-.984.756-1.549.756s-1.194-.307-1.549-.756c-.232-.294-.424-.762-.424-1.033v-.184h3.946z"/></svg>

<svg width="32" height="32" viewBox="0 0 32 32" fill="none" xmlns="http://www.w3.org/2000/svg"><path d="M15.493 2.126 C 15.018 2.419,14.992 2.541,14.989 4.457 L 14.987 6.061 14.440 6.155 C 11.249 6.702,8.955 9.123,8.246 12.693 C 8.035 13.754,8.000 14.369,8.000 17.009 C 8.000 18.376,7.975 19.757,7.945 20.080 C 7.779 21.869,7.139 22.978,5.667 24.025 C 5.179 24.373,5.013 24.619,5.013 25.000 C 5.013 25.292,5.091 25.483,5.295 25.695 C 5.611 26.022,5.665 26.027,8.989 26.027 L 11.986 26.027 12.024 26.407 C 12.073 26.904,12.225 27.392,12.497 27.920 C 12.764 28.439,13.446 29.149,13.973 29.455 C 15.183 30.157,16.817 30.157,18.027 29.455 C 18.554 29.149,19.236 28.439,19.503 27.920 C 19.775 27.392,19.927 26.904,19.976 26.407 L 20.014 26.027 23.011 26.027 C 26.335 26.027,26.389 26.022,26.705 25.695 C 26.909 25.483,26.987 25.292,26.987 25.000 C 26.987 24.619,26.821 24.373,26.333 24.025 C 24.856 22.974,24.224 21.880,24.055 20.080 C 24.025 19.757,24.000 18.376,24.000 17.009 C 24.000 15.643,23.974 14.263,23.943 13.943 C 23.864 13.130,23.664 12.170,23.416 11.414 C 22.477 8.557,20.333 6.630,17.562 6.155 L 17.018 6.062 17.002 4.404 C 16.984 2.502,16.975 2.455,16.540 2.179 C 16.241 1.990,15.754 1.965,15.493 2.126 M16.802 8.053 C 18.156 8.208,19.123 8.669,20.053 9.601 C 21.012 10.562,21.505 11.584,21.845 13.310 C 21.912 13.646,21.938 14.380,21.972 16.880 C 22.017 20.188,22.043 20.549,22.301 21.573 C 22.452 22.175,22.780 22.990,23.084 23.520 L 23.344 23.973 19.672 23.987 C 17.652 23.995,14.348 23.995,12.328 23.987 L 8.656 23.973 8.916 23.520 C 9.225 22.980,9.547 22.171,9.701 21.547 C 9.963 20.485,9.983 20.191,10.027 16.880 C 10.070 13.620,10.081 13.458,10.324 12.517 C 10.534 11.706,10.905 10.892,11.360 10.248 C 12.524 8.599,14.526 7.792,16.802 8.053 M17.973 26.211 C 17.973 26.482,17.781 26.950,17.549 27.244 C 17.194 27.693,16.565 28.000,16.000 28.000 C 15.435 28.000,14.806 27.693,14.451 27.244 C 14.219 26.950,14.027 26.482,14.027 26.211 L 14.027 26.027 16.000 26.027 L 17.973 26.027 17.973 26.211 " fill="#1A1C1F" stroke="none" fill-rule="evenodd"></path></svg>
